packages/core/src/svgs/hon.svg

<svg width="24" height="24" viewBox="0 0 24 24" fill="none" xmlns="http://www.w3.org/2000/svg">
<g clip-path="url(#clip0_31_11517)">
<path d="M0 0H24V24H0V0Z" fill="url(#paint0_linear_31_11517)"/>
<path d="M9.37276 5.27163L9.67276 5.78592L9.83991 6.08592L10.6842 7.56021L10.8428 7.82592C10.8513 7.84306 10.8642 7.84735 10.877 7.84306C11.623 7.6477 12.4068 7.6477 13.1528 7.84306L13.1613 7.83878L14.4299 5.62735L14.6999 5.15592C14.7034 5.15038 14.709 5.1464 14.7153 5.14481C14.7217 5.14322 14.7285 5.14412 14.7342 5.14735L16.3628 6.09021L16.5513 6.19735C16.5642 6.20592 16.5685 6.21878 16.5599 6.23163L16.1228 6.99878L15.0213 8.90592V8.92735L15.0256 8.94449L15.317 9.26163C15.7175 9.74596 16.0072 10.3121 16.1656 10.9202L16.1828 10.9245H19.2599C19.277 10.9245 19.2856 10.9331 19.2856 10.9502V13.0759H15.437C15.407 13.0769 15.3778 13.0661 15.3556 13.0459L14.7256 12.4459C14.71 12.4331 14.69 12.427 14.6699 12.4288H13.817C13.812 12.4287 13.8071 12.4303 13.8032 12.4335C13.7993 12.4366 13.7966 12.441 13.7956 12.4459C13.5385 13.5816 12.3299 14.1602 11.2542 13.6845C10.9886 13.5769 10.7531 13.4063 10.568 13.1876C10.3829 12.9689 10.2536 12.7085 10.1913 12.4288H8.48991C8.47276 12.4288 8.46419 12.4331 8.46419 12.4545C8.54559 13.1302 8.81935 13.7683 9.2529 14.2929C9.68646 14.8175 10.2616 15.2065 10.9098 15.4137C11.5581 15.621 12.2522 15.6376 12.9097 15.4617C13.5672 15.2859 14.1603 14.9248 14.6185 14.4216C14.627 14.4131 14.6356 14.4131 14.6399 14.4216L16.5685 17.7731C16.5692 17.7759 16.5692 17.7788 16.5685 17.7816V17.7902L16.5642 17.7945L14.7428 18.8573C14.7394 18.8589 14.7357 18.8597 14.732 18.8597C14.7284 18.8597 14.7247 18.8589 14.7213 18.8573C14.7147 18.8568 14.7086 18.8537 14.7042 18.8488L13.1699 16.1788C13.1663 16.172 13.1606 16.1667 13.1536 16.1636C13.1466 16.1605 13.1388 16.1598 13.1313 16.1616C12.3876 16.3634 11.6036 16.3634 10.8599 16.1616C10.856 16.1631 10.8525 16.1654 10.8495 16.1684C10.8466 16.1713 10.8443 16.1749 10.8428 16.1788L9.30419 18.8488C9.30066 18.8543 9.29513 18.8583 9.28876 18.8599C9.28238 18.8615 9.27563 18.8606 9.26991 18.8573L7.46562 17.8159C7.44419 17.8031 7.43991 17.7859 7.45276 17.7645L8.98276 15.0988C8.98663 15.0931 8.9887 15.0864 8.9887 15.0795C8.9887 15.0726 8.98663 15.0659 8.98276 15.0602C8.43277 14.5172 8.03901 13.8363 7.84276 13.0888C7.83773 13.0854 7.83166 13.0839 7.82562 13.0845H4.73991C4.73669 13.0846 4.73351 13.0839 4.73058 13.0826C4.72766 13.0812 4.72507 13.0793 4.72301 13.0768C4.72095 13.0743 4.71948 13.0714 4.71869 13.0683C4.71791 13.0652 4.71783 13.0619 4.71848 13.0588V11.0016C4.71419 10.9759 4.71848 10.9588 4.72705 10.9459C4.73134 10.9331 4.74848 10.9288 4.76991 10.9288H8.57134C8.58485 10.9287 8.59825 10.9314 8.61075 10.9365C8.62325 10.9417 8.63462 10.9492 8.64419 10.9588L9.28705 11.5588C9.29059 11.5636 9.29508 11.5676 9.30025 11.5705C9.30541 11.5735 9.31113 11.5753 9.31705 11.5759H10.1828C10.1956 11.5759 10.2042 11.5716 10.2085 11.5588C10.6842 9.64306 13.3456 9.64735 13.7956 11.5588C13.7999 11.5673 13.8085 11.5759 13.8213 11.5759H15.5228C15.5251 11.5761 15.5274 11.5758 15.5296 11.5751C15.5318 11.5744 15.5339 11.5732 15.5356 11.5716C15.538 11.5703 15.5399 11.5685 15.5414 11.5662C15.5429 11.564 15.5439 11.5614 15.5442 11.5588C15.4615 10.8828 15.1868 10.2448 14.7525 9.72023C14.3183 9.19566 13.7428 8.80659 13.0942 8.59911C12.4456 8.39163 11.7511 8.37445 11.0931 8.5496C10.435 8.72476 9.84097 9.0849 9.38133 9.58735C9.3776 9.5869 9.37405 9.58547 9.37104 9.58322C9.36803 9.58096 9.36567 9.57795 9.36419 9.57449L8.53276 8.12592L7.84276 6.93449L7.76991 6.80592L7.44848 6.24449C7.4461 6.24116 7.44444 6.23737 7.44358 6.23337C7.44273 6.22936 7.4427 6.22522 7.4435 6.22121C7.4443 6.2172 7.44592 6.21339 7.44825 6.21002C7.45058 6.20665 7.45357 6.2038 7.45705 6.20163L7.78705 6.01306L9.26134 5.15592C9.27848 5.14735 9.28705 5.14735 9.30419 5.16021C9.32562 5.19021 9.35134 5.22878 9.37276 5.27592V5.27163ZM12.8656 6.37735L13.217 6.43735C13.2218 6.43771 13.2264 6.43942 13.2303 6.44226C13.2342 6.4451 13.2372 6.44898 13.239 6.45344C13.2408 6.4579 13.2413 6.46277 13.2404 6.4675C13.2396 6.47224 13.2374 6.47664 13.2342 6.48021L12.8656 7.12306C12.86 7.1312 12.8522 7.13754 12.8431 7.14134C12.8339 7.14514 12.8239 7.14624 12.8142 7.14449C12.3058 7.05377 11.7859 7.04798 11.2756 7.12735C11.207 7.15306 11.1513 7.12735 11.1085 7.05449C10.9964 6.85605 10.8821 6.6589 10.7656 6.46306C10.765 6.45798 10.7658 6.45282 10.7681 6.44824C10.7704 6.44366 10.774 6.43987 10.7785 6.43735H10.787C11.4728 6.28735 12.1628 6.26592 12.8656 6.37735ZM7.40562 10.2516C7.54276 9.88735 7.72276 9.54021 7.94562 9.21021L8.21562 8.85449C8.22051 8.84602 8.22308 8.83641 8.22308 8.82663C8.22308 8.81685 8.22051 8.80725 8.21562 8.79878L7.85133 8.15592C7.8486 8.15064 7.84411 8.14647 7.83864 8.14412C7.83317 8.14178 7.82705 8.1414 7.82133 8.14306L7.80848 8.15163C7.49441 8.50241 7.22123 8.88774 6.99419 9.30021C6.82705 9.62163 6.69419 9.94306 6.59134 10.2645C6.58705 10.2773 6.59134 10.2859 6.60419 10.2859H7.35848C7.36831 10.2854 7.37772 10.2818 7.38541 10.2757C7.3931 10.2695 7.39866 10.2611 7.40134 10.2516H7.40562ZM16.457 8.46449C16.8856 9.00449 17.207 9.60449 17.417 10.2645C17.4213 10.2773 17.417 10.2859 17.3999 10.2859H16.6542C16.6432 10.2859 16.6324 10.2827 16.6233 10.2766C16.6141 10.2705 16.607 10.2618 16.6028 10.2516C16.4092 9.73765 16.1311 9.25964 15.7799 8.83735C15.7799 8.82449 15.7799 8.81592 15.7885 8.80735C15.9159 8.58528 16.0445 8.36385 16.1742 8.14306C16.1765 8.14251 16.179 8.14262 16.1812 8.14337C16.1835 8.14413 16.1855 8.14551 16.187 8.14735L16.457 8.46449ZM6.59134 13.7488C6.84651 14.5321 7.26749 15.2513 7.82562 15.8573H7.84276V15.8488L8.22848 15.1888L8.23276 15.1716L8.22848 15.1588C7.86847 14.7317 7.58435 14.2461 7.38848 13.7231C7.38238 13.7181 7.3749 13.7151 7.36705 13.7145H6.61276L6.60419 13.7188C6.60123 13.7197 6.5985 13.7212 6.59619 13.7233C6.59388 13.7254 6.59205 13.728 6.59083 13.7308C6.58961 13.7337 6.58902 13.7367 6.58911 13.7398C6.58919 13.7429 6.58995 13.746 6.59134 13.7488ZM16.5513 13.8645L16.6113 13.7359C16.614 13.7292 16.6188 13.7235 16.625 13.7196C16.6311 13.7158 16.6384 13.714 16.6456 13.7145H17.4085L17.417 13.7231V13.7402C17.1621 14.5306 16.738 15.256 16.1742 15.8659C16.1712 15.8649 16.1686 15.8631 16.1663 15.8609C16.1641 15.8587 16.1624 15.856 16.1613 15.8531L15.7842 15.2016C15.7806 15.1949 15.779 15.1872 15.7798 15.1796C15.7806 15.1719 15.7836 15.1647 15.7885 15.1588C16.1099 14.7731 16.3628 14.3402 16.5513 13.8645ZM11.1513 16.8688L10.7656 17.5502C10.7639 17.5548 10.7638 17.5599 10.7653 17.5646C10.7669 17.5693 10.77 17.5733 10.7742 17.5759H10.7828C11.5932 17.7545 12.433 17.7531 13.2428 17.5716C13.2439 17.5689 13.2446 17.566 13.2446 17.5631C13.2446 17.5601 13.2439 17.5572 13.2428 17.5545L12.857 16.8731C12.8528 16.8602 12.8442 16.8559 12.827 16.8602C12.2785 16.9545 11.7299 16.9545 11.1813 16.8602C11.1685 16.8602 11.1599 16.8602 11.1513 16.8731V16.8688Z" fill="white"/>
</g>
<defs>
<linearGradient id="paint0_linear_31_11517" x1="2.94" y1="-1.44839e-08" x2="24" y2="24" gradientUnits="userSpaceOnUse">
<stop stop-color="#0F0E0C"/>
<stop offset="0.2" stop-color="#1E3756"/>
<stop offset="0.35" stop-color="#676A74"/>
<stop offset="0.47" stop-color="#2C3D57"/>
<stop offset="0.87" stop-color="#0D0B10"/>
</linearGradient>
<clipPath id="clip0_31_11517">
<rect width="24" height="24" fill="white"/>
</clipPath>
</defs>
</svg>

<svg xmlns="http://www.w3.org/2000/svg" width="24" height="24" fill="none" viewBox="0 0 24 24"><g clip-path="url(#a)"><path fill="url(#b)" d="M0 0h24v24H0z"/><path fill="#fff" d="m9.373 5.272.3.514.167.3.844 1.474.159.266q.013.024.034.017a4.5 4.5 0 0 1 2.276 0l.008-.004 1.269-2.212.27-.471a.026.026 0 0 1 .034-.009l1.629.943.188.107q.021.015.009.035l-.437.767-1.102 1.907v.021l.005.017.291.318c.4.484.69 1.05.849 1.658l.017.005h3.077q.026 0 .026.025v2.126h-3.849a.12.12 0 0 1-.081-.03l-.63-.6a.08.08 0 0 0-.056-.017h-.853a.021.021 0 0 0-.021.017c-.258 1.136-1.466 1.714-2.542 1.239a1.77 1.77 0 0 1-1.063-1.256H8.49c-.017 0-.026.004-.026.025a3.553 3.553 0 0 0 6.154 1.968q.015-.013.022 0l1.928 3.351v.017l-.004.005-1.821 1.062a.03.03 0 0 1-.022 0 .03.03 0 0 1-.017-.008l-1.534-2.67a.03.03 0 0 0-.016-.015.04.04 0 0 0-.023-.002 4.34 4.34 0 0 1-2.271 0 .03.03 0 0 0-.017.017l-1.539 2.67a.03.03 0 0 1-.015.01.03.03 0 0 1-.02-.002l-1.803-1.041q-.033-.02-.013-.051l1.53-2.666a.034.034 0 0 0 0-.039 4.3 4.3 0 0 1-1.14-1.971.03.03 0 0 0-.017-.005H4.74a.02.02 0 0 1-.022-.025v-2.057q-.005-.038.01-.056c.003-.013.02-.017.042-.017H8.57a.1.1 0 0 1 .073.03l.643.6a.04.04 0 0 0 .03.017h.866q.019.001.026-.017c.475-1.916 3.137-1.912 3.587 0a.03.03 0 0 0 .025.017h1.702a.02.02 0 0 0 .013-.004l.005-.006.003-.007a3.56 3.56 0 0 0-6.163-1.972.02.02 0 0 1-.017-.013l-.831-1.448-.69-1.192-.073-.128-.322-.562a.03.03 0 0 1 .009-.042l.33-.189 1.474-.857c.017-.009.026-.009.043.004q.034.045.069.116zm3.493 1.105.351.06a.03.03 0 0 1 .022.016q.003.008.001.014 0 .008-.006.013l-.368.643a.05.05 0 0 1-.052.021 4.7 4.7 0 0 0-1.538-.017q-.104.038-.168-.073a31 31 0 0 0-.342-.59q-.001-.009.002-.016l.01-.01h.009a5.6 5.6 0 0 1 2.079-.06m-5.46 3.875a5 5 0 0 1 .54-1.042l.27-.356a.06.06 0 0 0 0-.055l-.365-.643a.03.03 0 0 0-.03-.013l-.013.009c-.314.35-.587.736-.814 1.148q-.25.483-.403.964-.006.02.013.022h.754a.05.05 0 0 0 .043-.034zm9.051-1.788q.644.81.96 1.8.007.02-.017.022h-.746a.06.06 0 0 1-.051-.034 5 5 0 0 0-.823-1.415c0-.013 0-.021.009-.03q.19-.333.385-.664a.01.01 0 0 1 .013.004zM6.591 13.75a5.7 5.7 0 0 0 1.235 2.108h.017v-.008l.385-.66.005-.017-.005-.013a4.9 4.9 0 0 1-.84-1.436.04.04 0 0 0-.021-.009h-.754l-.009.005a.02.02 0 0 0-.013.012.02.02 0 0 0 0 .018m9.96.115.06-.128a.035.035 0 0 1 .035-.022h.762l.009.01v.016a5.7 5.7 0 0 1-1.243 2.126.02.02 0 0 1-.013-.013l-.377-.651a.04.04 0 0 1 .005-.043q.48-.58.762-1.295m-5.4 3.005-.385.681a.021.021 0 0 0 .009.026h.008a5.7 5.7 0 0 0 2.46-.004l.002-.009-.002-.008-.386-.682q-.005-.02-.03-.013a4.8 4.8 0 0 1-1.646 0c-.012 0-.021 0-.03.013z"/></g><defs><linearGradient id="b" x1="2.94" x2="24" y1="0" y2="24" gradientUnits="userSpaceOnUse"><stop stop-color="#0F0E0C"/><stop offset=".2" stop-color="#1E3756"/><stop offset=".35" stop-color="#676A74"/><stop offset=".47" stop-color="#2C3D57"/><stop offset=".87" stop-color="#0D0B10"/></linearGradient><clipPath id="a"><path fill="#fff" d="M0 0h24v24H0z"/></clipPath></defs></svg>
